X:1
T:Loeil donne au cueur
T:Pierre Certon
T:Source : Livre XII de 30 chansons nouvelles à 4 parties---Paris---P.Attaingnant---1543. Editor : André Vierendeels (11/06/18) Notes : Original clefs : C1, C3, C4, F4 Original note values have been halved Editorial accidentals above the staff Square brackets indicate ligatures 
T:Loeil donne au cueur
T:#
T:©
T:©
T:©
T:©
C:Pierre Certon
Z:©
%%score [ 1 [ 2 3 ] 4 ]
L:1/8
Q:1/4=120
M:2/2
K:C
V:1 treble nm="Soprano" snm="S"
V:2 treble-8 nm="Tenor 1" snm="T 1"
V:3 treble-8 nm="Tenor 2" snm="T 2"
V:4 bass nm="Bass" snm="B"
V:1
 A8 | c6 B2- | BA A4 G2 | A4 z2 F2 | F2 F2 E2 G2- | GF E4 D2 | E8 | z4 A2 A2 | A2 F2 D2 G2- | %9
w: Loeil|don- ne'au-||cueur par|son as- pec a|_ _ _ dres-|se,|le cueur|sans loeil rien ne|
w: Doncq|si loeil|_ _ _ _|faict que|le cueur bien s'a-|* * dres- *|se,|con- ten-|te- ment vient tost|
 GFED C2 F2 | D2 F2 ED D2- | D2 C2 D4 :| z2 d2 d2 d2 | c6 B2 | A2 G2 A2 A2 | F2 F2 E4 | %16
w: _ _ _ _ _ pour-|roit choi- * * *|* * sir,|mais le cueur|a trop|plus grand le plai-|sir que loeil|
w: _ _ _ _ _ les|ceux sai- * * *|* * sir,|||||
 z2 D2 F2 F2 | E2 E2 G2 G2 | FEFG A2 c2- | cBGA Bc B2- | BA A4 G2 |[M:2/4] A4 |:[M:2/2] z4 A4- | %23
w: et ne sçau-|roit aul- tre- ment|es- * * * * *|||tre,|car|
w: |||||||
 A2 G2 F4 | E4 z2 F2 | F2 F2 E2 G2- | GF E4 D2 | E8 | z4 A2 A2 | A2 F2 D2 G2- | GFED C2 F2 | %31
w: _ le cueur|est le|si- è- ge du-|* * * de-|sir,|du- quel|les yeulx ne sont|_ _ _ _ _ que|
w: ||||||||
 D2 F2 ED D2- |"^#" D2 C2 D4 :| %33
w: la fe- * * nes-|* * tre.|
w: ||
V:2
 e8 | a4 g3 f | e2 d2 e4 | c4 z2 c2 | c2 d2 B2 e2 | d2 c2 A4 | B4 c2 e2 | e2 e2 c4 | A4 B2 G2 | %9
w: Loeil|don- ne'au- *||cueur, par|son as- pec a|dres- * *|se, le cueur|sans l'oeil rien|ne pour- roit|
w: Doncq|si loeil _|_ _ _|gaict que|le cueur bien s'a-|dres- * *|se, con- ten-|te- ment vient|tost les dux|
 G4 A4- | A2 B4 G2 | A4 A4 :| z2 f2 f2 f2 | e3 d c2 g2 | f2 d2 e2 e2 | d2 A2 c4 | z2 d2 d4 | z8 | %18
w: choi- *||* sir,|Mais le cueur|a _ _ trop|plus grand le plai-|sir que loeil,|que loeil||
w: sai- *||* sir,|||||||
 z4 z2 A2 | c2 c2 B2 B2 | d2 d2 e4 |[M:2/4] c4 |:[M:2/2] z4 d4 | c4 d4 | G2 G2 c4- | c2 d2 B2 e2 | %26
w: et|ne sçau- roit aul-|tre- ment es-|tre,|car|le cueur|est le si-|* è- ge du|
w: ||||||||
 d2 c2 A4 | B4 c2 e2 | e2 e2 c4 | A4 B2 G2 | G4 A4- | A2 B4 G2 | A4 A4 :| %33
w: _ _ de-|* sir, du-|quel les yeulx|ne sont que|la fe|_ _ _|nes- tre.|
w: |||||||
V:3
 A4 ABcd | e6 d2 | c2 BA B4 | A4 z2 A2 | A2 A2 G3 A | B2 c3 B A2- |"^#" A2 G2 A4- | A4 z4 | %8
w: Loeil don- * * *|* ne'au|cueur _ _ _|_ par|son as- pec _|_ a- * *|* dres- se,|_|
w: Doncq si _ _ _|_ loeil|faict _ _ _|_ que|le cueur bien _|_ s'a- * dres-|* * se,|_|
 d2 d2 d2 B2 | G2 c3 BAG | F2 F2 GFED | E4 D4 :| z2 A2 A2 A2 | ABcd e2 B2 | c2 d2 d2 c2 | %15
w: le cueur sans loeil,|rien ne _ _ _|_ pour- roit _ _ _|choi- sir,|mais le cueur|a _ _ _ _ trop|plus grand le plai-|
w: con- ten- te- ment|vient tost _ _ _|_ les deux _ _ _|sai- sir,||||
 d2 D2 A4- | A4 z2 A2 | c2 c2 B2 B2 | d2 d2 cBcd | e6 d2- | dcBA B4 |[M:2/4] A4 |:[M:2/2] z4 F3 G | %23
w: sir que loeil|_ et|ne sçau- roit aul-|tre- ment es- * * *|||tre,|car _|
w: ||||||||
 AB c4 B2 | c4 z2 A2 | A2 A2 G3 A | B2 c3 B A2- |"^#" A2 G2 A4- | A4 z4 | d2 d2 d2 B2 | %30
w: le _ cueur- *|est le|si- è- ge _|_ du _ _|_ de- sir,|_|du- quel les yeulx|
w: |||||||
 G2 c3 B AG | F2 F2 GFED | E4 D4 :| %33
w: ne sont _ _ _|que la fe- * * *|nes- tre.|
w: |||
V:4
 A,,8 | A,,B,,C,D, E,F, G,2 | A,2 F,2 E,4 | z2 F,2 F,4- | F,2 D,2 E,3 F, | G,2 A,2 F,4 | E,4 A,,4 | %7
w: Loeil|don- * * * * * *|* ne'au cueur|par son|_ as- pec a-|dres- * *|* se,|
w: Doncq|si _ _ _ _ _ _|_ loeil faict|que le|_ cueur bien s'a-|dres- * *|* se,|
 z2 A,2 A,2 A,2 | F,2 D,2 G,3 F, | E,D,C,B,, A,,2 D,2- | D,C,B,,A,, G,,2 B,,2 | A,,4 D,4 :| %12
w: le cueur sans|loeil, rien ne _|_ _ _ _ _ pour-|* * * * * roit|choi- sir,|
w: con- ten- te-|ment vient tost _|_ _ _ _ _ les|_ _ _ _ _ deux|sai- sir,|
 z2 D,2 D,2 D,2 | A,6 G,2 | A,2 B,2 A,2 A,2 | D,4 z2 A,,2 |"^#" D,4 z2 D,2 | C,2 A,,2 E,4 | %18
w: mais le cueur|a trop|plus grand le plai-|sir, que|loeil et|ne sçau- roit|
w: ||||||
 z2 D,2 F,2 F,2 | E,2 E,2 G,2 G,2 | D,2 F,2 E,4 |[M:2/4] A,,4 |:[M:2/2] z4 D,4 | F,2 E,2 D,4 | %24
w: et ne sçau-|roit aul- tre- ment|es- * *|tre,|car|le _ cueur|
w: ||||||
 C,4 z2 F,2 | F,2 D,2 E,3 F, | G,2 A,2 F,4 | E,4 A,,4 | z2 A,2 A,2 A,2 | F,2 D,2 G,3 F, | %30
w: est le|si- è- ge _|_ du de-|* sir,|du- quel les|yeulx ne sont _|
w: ||||||
 E,D,C,B,, A,,2 D,2- | D,C,B,,A,, G,,2 B,,2 | A,,4 D,4 :| %33
w: _ _ _ _ que la|_ _ _ _ _ fe-|nes- tre.|
w: |||

